packages/Snapp/src/SignIcon/index.svg

<?xml version="1.0" encoding="UTF-8"?>
<svg width="24px" height="24px" viewBox="0 0 24 24" version="1.1" xmlns="http://www.w3.org/2000/svg" xmlns:xlink="http://www.w3.org/1999/xlink">
    <title>Icons/24/Sign</title>
    <g id="Icons/24/Sign" stroke="none" stroke-width="1" fill="none" fill-rule="evenodd">
        <rect id="Container" fill-opacity="0" fill="#D8D8D8" fill-rule="nonzero" x="0" y="0" width="24" height="24"></rect>
        <polygon id="Path" points="0 0 24 0 24 24 0 24"></polygon>
        <path d="M15.6148936,14.6498828 C15.6409567,15.5965856 15.7287666,16.5282306 15.9674451,17.4464029 C16.2136452,18.3937221 16.5826392,19.3041453 16.9489219,20.2092851 C17.2682386,20.9983656 15.9984934,21.337826 15.6838996,20.5604572 C15.3593353,19.7584323 15.0343337,18.9520046 14.7924191,18.1200403 C14.3428744,19.2084272 13.412824,20.4394666 12.0875417,19.7139635 C11.8409917,19.5789718 11.6107094,19.3870952 11.4085892,19.1633419 C10.805552,19.8649595 9.94477964,19.904255 9.09596826,19.9023492 L8.73371055,19.9008208 L8.73371055,19.9008208 C7.36697211,19.8990597 6.00023367,19.8960657 4.63349523,19.8924554 C3.78959306,19.8902539 3.78801878,18.5693962 4.63367015,18.5715976 C5.81341897,18.5747676 6.99316779,18.5773213 8.17291661,18.5791705 C8.56946055,18.5797869 8.96591702,18.5803152 9.3623735,18.5805794 C10.0808579,18.5811078 10.5649494,18.4359015 10.7258759,17.6402167 C10.8619638,16.9674598 11.8072322,17.0578946 11.9908983,17.6402167 C12.444816,19.078807 13.1955732,18.5151529 13.6160812,17.5474925 C14.0356272,16.5821216 14.143203,15.5016599 14.3264319,14.4742968 C14.4611204,13.7193825 15.5951276,13.9309839 15.6148936,14.6498828 Z M14.7125816,5.33333333 L17.6666667,8.28741841 L8.95408508,17 L6,17 L6,14.0459149 L14.7125816,5.33333333 Z M16.7875692,3.23243934 C17.0974883,2.92252022 17.5981269,2.92252022 17.908046,3.23243934 L17.908046,3.23243934 L19.7675607,5.09195402 C20.0774798,5.40187314 20.0774798,5.90251171 19.7675607,6.21243082 L19.7675607,6.21243082 L18.3133248,7.66666667 L15.3333333,4.68667518 Z" id="Combined-Shape" fill="#333333"></path>
    </g>
</svg>

<svg viewBox="0 0 24 24" xmlns="http://www.w3.org/2000/svg" fill="currentColor" focusable="false">
  <g fill-rule="evenodd">
    <path d="M0 0h24v24H0z"/>
    <path d="M15.615 14.65c.026.947.114 1.878.352 2.796.247.948.616 1.858.982 2.763.32.79-.95 1.129-1.265.351-.325-.802-.65-1.608-.892-2.44-.45 1.088-1.38 2.32-2.704 1.594a2.645 2.645 0 01-.68-.55c-.602.701-1.463.74-2.312.738l-.362-.001c-1.367-.002-2.734-.005-4.1-.009-.844-.002-.846-1.323 0-1.32a3161.304 3161.304 0 004.728.009c.719 0 1.203-.145 1.364-.94.136-.674 1.081-.583 1.265 0 .454 1.438 1.205.874 1.625-.094.42-.965.527-2.045.71-3.073.135-.755 1.27-.543 1.289.176zm-.902-9.317l2.954 2.954L8.954 17H6v-2.954l8.713-8.713zm2.075-2.1a.79.79 0 011.12 0l1.86 1.859c.31.31.31.81 0 1.12l-1.455 1.455-2.98-2.98z"/>
  </g>
</svg>
